src/components/Sponsors/logos/hi.svg

<svg width="352" height="40" viewBox="0 0 352 40" fill="none" xmlns="http://www.w3.org/2000/svg">
<path d="M26.0038 0.325684V16.4782H10.9389V0.325684H0V39.8253H10.9389V24.705H26.0038V39.8253H36.9426V0.325684H26.0038Z" fill="url(#paint0_linear)"/>
<path d="M82.9626 2.99086C82.9626 4.68274 81.7207 5.98167 80.0834 5.98167C78.4469 5.98167 77.2051 4.68274 77.2051 2.99086C77.2051 1.24017 78.4469 4.38763e-07 80.0834 4.38763e-07C81.7207 -0.000851893 82.9626 1.24017 82.9626 2.99086ZM82.285 10.1692V39.8303H77.939V10.1692H82.285Z" fill="url(#paint1_linear)"/>
<path d="M118.646 21.5411V39.8296H114.242V22.6696C114.242 17.3621 111.08 14.2017 105.832 14.2017C99.9608 14.2596 96.3487 18.1539 95.8415 23.9131V39.8296H91.4375V10.1684H95.8415V16.687C97.9298 12.1714 101.937 10.0252 107.357 9.96899C114.468 9.96985 118.646 14.3159 118.646 21.5411Z" fill="url(#paint2_linear)"/>
<path d="M142.177 37.7976C140.089 39.2082 137.831 39.9992 135.461 39.9992C131.114 40.0554 127.897 37.4592 127.897 31.5892V14.4855H123.607V11.0403H127.897V3.25171H132.243V11.0403H141.67V14.4855H132.243V30.8537C132.243 34.4658 133.655 35.9352 136.195 35.9352C137.719 35.8773 139.3 35.3693 140.937 34.4104L142.177 37.7976Z" fill="url(#paint3_linear)"/>
<path d="M172.908 26.6226H148.637C149.37 32.4935 153.604 36.329 159.416 36.329C163.087 36.329 166.304 34.9746 168.618 32.5489L171.046 35.0888C168.224 38.1939 164.046 40 159.079 40C150.329 40 144.29 33.8478 144.29 24.9835C144.29 16.1219 150.385 10.026 159.023 9.96973C168.618 9.96973 173.36 16.5736 172.908 26.6226ZM168.958 23.1212C168.676 17.3628 164.836 13.6382 159.023 13.6382C153.323 13.6382 149.259 17.3628 148.637 23.1212H168.958Z" fill="url(#paint4_linear)"/>
<path d="M194.609 9.96973V14.2595C188.343 14.1453 184.447 18.0422 183.939 24.0238V39.8286H179.537V10.1675H183.939V16.7423C185.915 12.3955 189.584 10.026 194.609 9.96973Z" fill="url(#paint5_linear)"/>
<path d="M218.565 39.8296V35.2023C216.195 38.419 212.413 40.0001 207.671 40.0001C201.519 40.0001 197.568 36.1058 197.568 31.0242C197.568 25.8309 201.689 22.5579 208.688 22.5H218.453V20.6376C218.453 16.2916 215.744 13.6383 210.495 13.6383C207.22 13.6383 204.173 14.881 201.068 17.0808L199.206 13.9775C203.044 11.4359 206.261 9.96899 211.34 9.96899C218.68 9.96899 222.744 13.8633 222.8 20.185L222.858 39.8287H218.565V39.8296ZM218.509 29.6135V26.0014H209.252C204.285 26.0014 201.689 27.5262 201.689 30.8545C201.689 34.1292 204.343 36.3291 208.519 36.3291C213.542 36.3291 217.38 33.8479 218.509 29.6135Z" fill="url(#paint6_linear)"/>
<path d="M244.023 13.9203C237.871 13.9203 233.47 18.4359 233.47 24.9835C233.47 31.5891 237.871 36.1056 244.023 36.1056C247.92 36.1056 251.137 34.7513 253.225 32.265L255.764 34.8629C253.113 38.0796 248.991 40 243.855 40C235.219 40 229.121 33.8478 229.121 24.9835C229.121 16.1781 235.276 9.96973 243.855 9.96973C248.653 9.96973 252.603 11.6062 255.312 14.3712L252.887 17.4208C250.63 15.2192 247.636 13.9203 244.023 13.9203Z" fill="url(#paint7_linear)"/>
<path d="M278.612 37.7976C276.523 39.2082 274.265 39.9992 271.894 39.9992C267.548 40.0554 264.329 37.4592 264.329 31.5892V14.4855H260.041V11.0403H264.329V3.25171H268.677V11.0403H278.104V14.4855H268.677V30.8537C268.677 34.4658 270.087 35.9352 272.627 35.9352C274.152 35.8773 275.732 35.3693 277.369 34.4104L278.612 37.7976Z" fill="url(#paint8_linear)"/>
<path d="M289.035 2.99086C289.035 4.68274 287.794 5.98167 286.156 5.98167C284.519 5.98167 283.279 4.68274 283.279 2.99086C283.279 1.24017 284.52 4.38763e-07 286.156 4.38763e-07C287.794 -0.000851893 289.035 1.24017 289.035 2.99086ZM288.357 10.1692V39.8303H284.011V10.1692H288.357Z" fill="url(#paint9_linear)"/>
<path d="M297.902 10.1692L307.373 35.3701L316.786 10.1692H321.246L309.573 39.8303H305.001L293.217 10.1692H297.902Z" fill="url(#paint10_linear)"/>
<path d="M351.01 26.6226H326.739C327.472 32.4935 331.707 36.329 337.521 36.329C341.19 36.329 344.406 34.9746 346.72 32.5489L349.148 35.0888C346.324 38.1939 342.148 40 337.181 40C328.431 40 322.391 33.8478 322.391 24.9835C322.391 16.1219 328.489 10.026 337.125 9.96973C346.72 9.96973 351.462 16.5736 351.01 26.6226ZM347.06 23.1212C346.777 17.3628 342.94 13.6382 337.126 13.6382C331.423 13.6382 327.359 17.3628 326.739 23.1212H347.06Z" fill="url(#paint11_linear)"/>
<path d="M43.7598 16.491V39.8253H54.702V10.1829L43.7598 16.491Z" fill="url(#paint12_linear)"/>
<path d="M54.4901 7.2149L45.3522 12.4908C44.6482 12.8974 43.7686 12.3894 43.7686 11.5771V1.02524C43.7686 0.266666 44.5902 -0.208043 45.2474 0.171245L54.4901 5.50768C55.1472 5.88697 55.1472 6.83561 54.4901 7.2149Z" fill="url(#paint13_linear)"/>
<defs>
<linearGradient id="paint0_linear" x1="18.5734" y1="0.325684" x2="24.6672" y2="32.9259" gradientUnits="userSpaceOnUse">
<stop stop-color="#F7FCFF" stop-opacity="0.3"/>
<stop offset="1" stop-color="#F7FCFF" stop-opacity="0.1"/>
</linearGradient>
<linearGradient id="paint1_linear" x1="80.0997" y1="4.00147e-08" x2="96.8076" y2="13.8146" gradientUnits="userSpaceOnUse">
<stop stop-color="#F7FCFF" stop-opacity="0.3"/>
<stop offset="1" stop-color="#F7FCFF" stop-opacity="0.1"/>
</linearGradient>
<linearGradient id="paint2_linear" x1="105.117" y1="9.96899" x2="109.837" y2="34.5693" gradientUnits="userSpaceOnUse">
<stop stop-color="#F7FCFF" stop-opacity="0.3"/>
<stop offset="1" stop-color="#F7FCFF" stop-opacity="0.1"/>
</linearGradient>
<linearGradient id="paint3_linear" x1="132.944" y1="3.25171" x2="142.642" y2="31.2855" gradientUnits="userSpaceOnUse">
<stop stop-color="#F7FCFF" stop-opacity="0.3"/>
<stop offset="1" stop-color="#F7FCFF" stop-opacity="0.1"/>
</linearGradient>
<linearGradient id="paint4_linear" x1="158.693" y1="9.96973" x2="163.241" y2="34.7871" gradientUnits="userSpaceOnUse">
<stop stop-color="#F7FCFF" stop-opacity="0.3"/>
<stop offset="1" stop-color="#F7FCFF" stop-opacity="0.1"/>
</linearGradient>
<linearGradient id="paint5_linear" x1="187.115" y1="9.96973" x2="195.002" y2="32.7425" gradientUnits="userSpaceOnUse">
<stop stop-color="#F7FCFF" stop-opacity="0.3"/>
<stop offset="1" stop-color="#F7FCFF" stop-opacity="0.1"/>
</linearGradient>
<linearGradient id="paint6_linear" x1="210.283" y1="9.96899" x2="215.388" y2="34.5607" gradientUnits="userSpaceOnUse">
<stop stop-color="#F7FCFF" stop-opacity="0.3"/>
<stop offset="1" stop-color="#F7FCFF" stop-opacity="0.1"/>
</linearGradient>
<linearGradient id="paint7_linear" x1="242.516" y1="9.96973" x2="247.382" y2="34.6618" gradientUnits="userSpaceOnUse">
<stop stop-color="#F7FCFF" stop-opacity="0.3"/>
<stop offset="1" stop-color="#F7FCFF" stop-opacity="0.1"/>
</linearGradient>
<linearGradient id="paint8_linear" x1="269.378" y1="3.25171" x2="279.076" y2="31.286" gradientUnits="userSpaceOnUse">
<stop stop-color="#F7FCFF" stop-opacity="0.3"/>
<stop offset="1" stop-color="#F7FCFF" stop-opacity="0.1"/>
</linearGradient>
<linearGradient id="paint9_linear" x1="286.173" y1="4.00147e-08" x2="302.88" y2="13.8099" gradientUnits="userSpaceOnUse">
<stop stop-color="#F7FCFF" stop-opacity="0.3"/>
<stop offset="1" stop-color="#F7FCFF" stop-opacity="0.1"/>
</linearGradient>
<linearGradient id="paint10_linear" x1="307.309" y1="10.1692" x2="311.841" y2="34.6663" gradientUnits="userSpaceOnUse">
<stop stop-color="#F7FCFF" stop-opacity="0.3"/>
<stop offset="1" stop-color="#F7FCFF" stop-opacity="0.1"/>
</linearGradient>
<linearGradient id="paint11_linear" x1="336.794" y1="9.96973" x2="341.342" y2="34.7872" gradientUnits="userSpaceOnUse">
<stop stop-color="#F7FCFF" stop-opacity="0.3"/>
<stop offset="1" stop-color="#F7FCFF" stop-opacity="0.1"/>
</linearGradient>
<linearGradient id="paint12_linear" x1="49.2611" y1="10.1829" x2="59.0556" y2="30.8638" gradientUnits="userSpaceOnUse">
<stop stop-color="#F7FCFF" stop-opacity="0.3"/>
<stop offset="1" stop-color="#F7FCFF" stop-opacity="0.1"/>
</linearGradient>
<linearGradient id="paint13_linear" x1="49.4067" y1="0.0378418" x2="51.441" y2="10.3976" gradientUnits="userSpaceOnUse">
<stop stop-color="#F7FCFF" stop-opacity="0.3"/>
<stop offset="1" stop-color="#F7FCFF" stop-opacity="0.1"/>
</linearGradient>
</defs>
</svg>

<svg width="352" height="40" fill="none" xmlns="http://www.w3.org/2000/svg"><path d="M26.004.326v16.152H10.939V.326H0v39.5h10.939V24.704h15.065v15.12h10.939V.325h-10.94z" fill="url(#paint0_linear)"/><path d="M82.963 2.99c0 1.693-1.242 2.992-2.88 2.992-1.636 0-2.878-1.3-2.878-2.991C77.205 1.24 78.447 0 80.083 0c1.638 0 2.88 1.24 2.88 2.99zm-.678 7.18v29.66h-4.346V10.17h4.346z" fill="url(#paint1_linear)"/><path d="M118.646 21.541V39.83h-4.404V22.67c0-5.308-3.162-8.468-8.41-8.468-5.871.058-9.483 3.952-9.99 9.711V39.83h-4.404V10.168h4.403v6.519c2.089-4.516 6.096-6.662 11.516-6.718 7.111 0 11.289 4.347 11.289 11.572z" fill="url(#paint2_linear)"/><path d="M142.177 37.798c-2.088 1.41-4.346 2.201-6.716 2.201-4.347.056-7.564-2.54-7.564-8.41V14.485h-4.29V11.04h4.29V3.252h4.346v7.788h9.427v3.446h-9.427v16.368c0 3.612 1.412 5.081 3.952 5.081 1.524-.058 3.105-.566 4.742-1.525l1.24 3.388z" fill="url(#paint3_linear)"/><path d="M172.908 26.623h-24.271c.733 5.87 4.967 9.706 10.779 9.706 3.671 0 6.888-1.354 9.202-3.78l2.428 2.54c-2.822 3.105-7 4.911-11.967 4.911-8.75 0-14.789-6.152-14.789-15.017 0-8.861 6.095-14.957 14.733-15.013 9.595 0 14.337 6.604 13.885 16.653zm-3.95-3.502c-.282-5.758-4.122-9.483-9.935-9.483-5.7 0-9.764 3.725-10.386 9.483h20.321z" fill="url(#paint4_linear)"/><path d="M194.609 9.97v4.29c-6.266-.115-10.162 3.782-10.67 9.764v15.805h-4.402V10.167h4.402v6.575c1.976-4.347 5.645-6.716 10.67-6.772z" fill="url(#paint5_linear)"/><path d="M218.565 39.83v-4.628C216.195 38.42 212.413 40 207.671 40c-6.152 0-10.103-3.894-10.103-8.976 0-5.193 4.121-8.466 11.12-8.524h9.765v-1.862c0-4.346-2.709-7-7.958-7-3.275 0-6.322 1.243-9.427 3.443l-1.862-3.104c3.838-2.541 7.055-4.008 12.134-4.008 7.34 0 11.404 3.894 11.46 10.216l.058 19.644h-4.293zm-.056-10.216V26h-9.257c-4.967 0-7.563 1.525-7.563 4.854 0 3.274 2.654 5.474 6.83 5.474 5.023 0 8.861-2.481 9.99-6.716z" fill="url(#paint6_linear)"/><path d="M244.023 13.92c-6.152 0-10.553 4.516-10.553 11.063 0 6.606 4.401 11.123 10.553 11.123 3.897 0 7.114-1.355 9.202-3.841l2.539 2.598C253.113 38.08 248.991 40 243.855 40c-8.636 0-14.734-6.152-14.734-15.017 0-8.805 6.155-15.013 14.734-15.013 4.798 0 8.748 1.636 11.457 4.401l-2.425 3.05c-2.257-2.202-5.251-3.5-8.864-3.5z" fill="url(#paint7_linear)"/><path d="M278.612 37.798c-2.089 1.41-4.347 2.201-6.718 2.201-4.346.056-7.565-2.54-7.565-8.41V14.485h-4.288V11.04h4.288V3.252h4.348v7.788h9.427v3.446h-9.427v16.368c0 3.612 1.41 5.081 3.95 5.081 1.525-.058 3.105-.566 4.742-1.525l1.243 3.388z" fill="url(#paint8_linear)"/><path d="M289.035 2.99c0 1.693-1.241 2.992-2.879 2.992-1.637 0-2.877-1.3-2.877-2.991 0-1.75 1.241-2.991 2.877-2.991 1.638 0 2.879 1.24 2.879 2.99zm-.678 7.18v29.66h-4.346V10.17h4.346z" fill="url(#paint9_linear)"/><path d="M297.902 10.17l9.471 25.2 9.413-25.2h4.46l-11.673 29.66h-4.572l-11.784-29.66h4.685z" fill="url(#paint10_linear)"/><path d="M351.01 26.623h-24.271c.733 5.87 4.968 9.706 10.782 9.706 3.669 0 6.885-1.354 9.199-3.78l2.428 2.54c-2.824 3.105-7 4.911-11.967 4.911-8.75 0-14.79-6.152-14.79-15.017 0-8.861 6.098-14.957 14.734-15.013 9.595 0 14.337 6.604 13.885 16.653zm-3.95-3.502c-.283-5.758-4.12-9.483-9.934-9.483-5.703 0-9.767 3.725-10.387 9.483h20.321z" fill="url(#paint11_linear)"/><path d="M43.76 16.491v23.334h10.942V10.183L43.76 16.49z" fill="url(#paint12_linear)"/><path d="M54.49 7.215l-9.138 5.276a1.055 1.055 0 0 1-1.583-.914V1.025a.986.986 0 0 1 1.478-.854l9.243 5.337a.986.986 0 0 1 0 1.707z" fill="url(#paint13_linear)"/><defs><linearGradient id="paint0_linear" x1="18.573" y1=".326" x2="24.667" y2="32.926" gradientUnits="userSpaceOnUse"><stop stop-color="#F7FCFF" stop-opacity=".3"/><stop offset="1" stop-color="#F7FCFF" stop-opacity=".1"/></linearGradient><linearGradient id="paint1_linear" x1="80.1" x2="96.808" y2="13.815" gradientUnits="userSpaceOnUse"><stop stop-color="#F7FCFF" stop-opacity=".3"/><stop offset="1" stop-color="#F7FCFF" stop-opacity=".1"/></linearGradient><linearGradient id="paint2_linear" x1="105.117" y1="9.969" x2="109.837" y2="34.569" gradientUnits="userSpaceOnUse"><stop stop-color="#F7FCFF" stop-opacity=".3"/><stop offset="1" stop-color="#F7FCFF" stop-opacity=".1"/></linearGradient><linearGradient id="paint3_linear" x1="132.944" y1="3.252" x2="142.642" y2="31.285" gradientUnits="userSpaceOnUse"><stop stop-color="#F7FCFF" stop-opacity=".3"/><stop offset="1" stop-color="#F7FCFF" stop-opacity=".1"/></linearGradient><linearGradient id="paint4_linear" x1="158.693" y1="9.97" x2="163.241" y2="34.787" gradientUnits="userSpaceOnUse"><stop stop-color="#F7FCFF" stop-opacity=".3"/><stop offset="1" stop-color="#F7FCFF" stop-opacity=".1"/></linearGradient><linearGradient id="paint5_linear" x1="187.115" y1="9.97" x2="195.002" y2="32.742" gradientUnits="userSpaceOnUse"><stop stop-color="#F7FCFF" stop-opacity=".3"/><stop offset="1" stop-color="#F7FCFF" stop-opacity=".1"/></linearGradient><linearGradient id="paint6_linear" x1="210.283" y1="9.969" x2="215.388" y2="34.561" gradientUnits="userSpaceOnUse"><stop stop-color="#F7FCFF" stop-opacity=".3"/><stop offset="1" stop-color="#F7FCFF" stop-opacity=".1"/></linearGradient><linearGradient id="paint7_linear" x1="242.516" y1="9.97" x2="247.382" y2="34.662" gradientUnits="userSpaceOnUse"><stop stop-color="#F7FCFF" stop-opacity=".3"/><stop offset="1" stop-color="#F7FCFF" stop-opacity=".1"/></linearGradient><linearGradient id="paint8_linear" x1="269.378" y1="3.252" x2="279.076" y2="31.286" gradientUnits="userSpaceOnUse"><stop stop-color="#F7FCFF" stop-opacity=".3"/><stop offset="1" stop-color="#F7FCFF" stop-opacity=".1"/></linearGradient><linearGradient id="paint9_linear" x1="286.173" x2="302.88" y2="13.81" gradientUnits="userSpaceOnUse"><stop stop-color="#F7FCFF" stop-opacity=".3"/><stop offset="1" stop-color="#F7FCFF" stop-opacity=".1"/></linearGradient><linearGradient id="paint10_linear" x1="307.309" y1="10.169" x2="311.841" y2="34.666" gradientUnits="userSpaceOnUse"><stop stop-color="#F7FCFF" stop-opacity=".3"/><stop offset="1" stop-color="#F7FCFF" stop-opacity=".1"/></linearGradient><linearGradient id="paint11_linear" x1="336.794" y1="9.97" x2="341.342" y2="34.787" gradientUnits="userSpaceOnUse"><stop stop-color="#F7FCFF" stop-opacity=".3"/><stop offset="1" stop-color="#F7FCFF" stop-opacity=".1"/></linearGradient><linearGradient id="paint12_linear" x1="49.261" y1="10.183" x2="59.056" y2="30.864" gradientUnits="userSpaceOnUse"><stop stop-color="#F7FCFF" stop-opacity=".3"/><stop offset="1" stop-color="#F7FCFF" stop-opacity=".1"/></linearGradient><linearGradient id="paint13_linear" x1="49.407" y1=".038" x2="51.441" y2="10.398" gradientUnits="userSpaceOnUse"><stop stop-color="#F7FCFF" stop-opacity=".3"/><stop offset="1" stop-color="#F7FCFF" stop-opacity=".1"/></linearGradient></defs></svg>
